!!!COM: Haydn, Franz Joseph 
!!!OPR: String Quartet in G Major 
!!!ONM: Opus 64, No. 4 
!!!OTL: Allegro con brio 
!!!OMV: 1 
!!!SCT: H III:66 
!!!SCA: Thematisch-bibliographisches Werkevererzeichnis (A. van Hoboken) 
!!!YOR: Trautwein Edition 
!!!EED: Frances Bennion 
!!!ENC: Frances Bennion 
!!!CDT: 1732/3/31/-1809/5/31/
!!!OCY: Österreich 
!!!YEC: Copyright (c) 1994, 2000 Center for Computer Assisted Research in the Humanities 
!!!YEM: Rights to all derivative editions reserved. 
!!!YEM: Refer to licensing agreement for further details. 
!!!YEN: United States of America 
**kern	**kern	**kern	**kern
*k[f#]	*k[f#]	*k[f#]	*k[f#]
*G:	*G:	*G:	*G:
*clefF	*clefF	*clefC3	*clefF4
*M4/4	*M4/4	*M4/4	*M4/4
*tb16	*tb16	*tb16	*tb16
=0-	=0-	=0-	=0-
2..r	2..r	2..r	2..r
16B	8r	8r	8r
16d	.	.	.
=1	=1	=1	=1
4.g	8r	8r	4GG
.	8d	8B	.
.	8d	8B	4r
8b	8d	8B	.
4.dd	8r	8r	4GG
.	8b	8G	.
.	8b	8g	4r
8gg	8dd	8b	.
=2	=2	=2	=2
4gg	[2cc	[2a	8r
.	.	.	8D
16ff#	.	.	8d
16gg	.	.	.
16ee	.	.	8e
16ff#	.	.	.
8dd	8cc]	8a]	8f#
4r	4r	4r	4r
8cc	8a	8d	8F#
=3	=3	=3	=3
4cc	4a	4.d	4.G
8b	8g	.	.
8a	8f#	8B	8D#
8g	8e	8B	8E
8g	8B	8B	8E
8a	8c#	8G	8AA
8a	8c#	8G	8AA
=4	=4	=4	=4
8d	8d	8F#	8D
8r	8r	8r	8r
8e	8c#	8G	8AA
16e	8c#	8G	8AA
16f#	.	.	.
8d	8d	8F#	8D
4r	4.r	4.r	4.r
16B	.	.	.
16d	.	.	.
=5	=5	=5	=5
4.g	8r	8r	4GG
.	8d	8B	.
.	8d	8B	4r
8b	8d	8B	.
[4dd	8r	8r	4GG
.	8b	8G	.
16dd]	8b	8g	4r
16gg	.	.	.
16bb	8dd	8b	.
16gg	.	.	.
=6	=6	=6	=6
4gg	[2cc	[2a	8r
.	.	.	8D
16ff#	.	.	8d
16gg	.	.	.
16ee	.	.	8e
16ff#	.	.	.
8dd	8cc]	8a]	8f#
4r	4r	4r	4r
8ccc	8aa	8dd	8F#
=7	=7	=7	=7
4ccc	4aa	4.dd	4.G
8bb	8gg	.	.
8ddd	8ff	8g#	8B
4ddd	4ff	4g#	4.c
8ccc	8ee	4a	.
16bb	16dd	.	8c
16aa	16cc	.	.
=8	=8	=8	=8
8gg	8b	8b	8d
8gg	8b	8g	8d
8aa	8cc	8f#	8D
16aa	16cc	8f#	8D
16bb	16dd	.	.
8gg	8b	8g	8G
8r	8r	8r	8r
8A	8cc	8d	8f#
16A	8cc	8d	8f#
16B	.	.	.
=9	=9	=9	=9
8G	8b	8d	8g
8r	8r	8r	8r
8A	8cc	8d	8f#
16A	16cc	8d	8f#
16B	16dd	.	.
8G	8b	8d	8g
8G	8b	8d	8g
8A	8cc	8d	8f#
16A	16cc	8d	8f#
16B	16dd	.	.
=10	=10	=10	=10
8G	8b	8d	8g
2r	8r	8r	8r
.	8e	4b	4g
.	16e	.	.
.	16f#	.	.
.	8d#	8cc	8a
8r	4.r	8r	8r
8ddd#	.	8cc	8a
8ddd#	.	8cc	8a
=11	=11	=11	=11
8eee	4r	8b	8g
2r	.	8r	8r
.	16e	8b	8g
.	16f#	.	.
.	16g	8b	8g
.	16e	.	.
.	8c#	8a	8g
8r	4.r	8r	8r
8ccc#	.	8a	8g
8ccc#	.	8a	8g
=12	=12	=12	=12
8ddd	1dd	8a	8f#
8r	.	8r	8r
16d	.	8A	8FF#
16e	.	.	.
16f#	.	8A	8FF#
16d	.	.	.
16e	.	8B	8GG
16f#	.	.	.
16g	.	8B	8GG
16e	.	.	.
16f#	.	8c	8AA
16g	.	.	.
16a	.	8c	8AA
16f#	.	.	.
=13	=13	=13	=13
16g	2..dd	8B	8BB
16a	.	.	.
16b	.	8B	8BB
16g	.	.	.
16f#	.	8d	8AA
16g	.	.	.
16a	.	8d	8AA
16f#	.	.	.
8e	.	2B	8GG
4f	.	.	8GG
.	.	.	8GG#
8d	8f	.	8GG#
=14	=14	=14	=14
16c#	4e	4A	4AA
16e	.	.	.
16a	.	.	.
16cc#	.	.	.
16ee	8r	8r	8r
16cc#	.	.	.
16dd	8g#	16B	8E
16b	.	16d	.
16cc#	4a	4c#	4A
16e	.	.	.
16a	.	.	.
16cc#	.	.	.
16ee	8r	8r	8r
16cc#	.	.	.
16dd	8g#	16B	8E
16b	.	16d	.
=15	=15	=15	=15
16cc#	4a	8c#	4A
16a	.	.	.
16g#	.	4.r	.
16a	.	.	.
16cc#	4r	.	4r
16a	.	.	.
16cc#	.	.	.
16ee	.	.	.
16gg	4c#	4e	2A
16ff#	.	.	.
16ee	.	.	.
16dd	.	.	.
16cc#	8e	8g	.
16b	.	.	.
16a	8g	8e	.
16cc#	.	.	.
=16	=16	=16	=16
4.dd	8f#	8f#	4D
.	8a	8f#	.
.	8a	8f#	4r
8ff#	8a	8f#	.
4.aa	8r	8r	4D
.	8ff#	8dd	.
.	8ff#	8dd	4r
8ddd	8aa	8ff#	.
=17	=17	=17	=17
4ddd	4.gg	4.ee	1r
8ccc#	.	.	.
8bb	8ff#	8dd	.
8aa	4.ee	4.cc#	.
8aa#	.	.	.
8bb	.	.	.
8gg	8dd	8b	.
=18	=18	=18	=18
4gg	4.cc#	4.a	1r
8ff#	.	.	.
8ee	8b	8g	.
8dd	16a	16f#	.
.	16A	16A	.
8cc#	16g	16e	.
.	16A	16A	.
8dd	16f#	16d	.
.	16A	16A	.
8dd#	16a	16f#	.
.	16A	16A	.
=19	=19	=19	=19
4ee	16g	16e	4C#
.	16A	16A	.
.	16g	16e	.
.	16A	16A	.
8cc#	16g	16e	4r
.	16A	16A	.
16b	16g	16e	.
16a	16A	16A	.
8dd	16f#	16d	4D
.	16A	16A	.
8cc#	16g	16e	.
.	16A	16A	.
8dd	16f#	16d	4r
.	16A	16A	.
8dd#	16a	16f#	.
.	16A	16A	.
=20	=20	=20	=20
4ee	16g	16e	4C#
.	16A	16A	.
.	16g	16e	.
.	16A	16A	.
8cc#	16g	16e	4r
.	16A	16A	.
16b	16g	16e	.
16a	16A	16A	.
4ff#	16f#	16d	4D
.	16A	16A	.
.	16f#	16d	.
.	16A	16A	.
16ee	16f#	16d	4r
16dd	16A	16A	.
16cc#	16f#	16d	.
16dd	16A	16A	.
=21	=21	=21	=21
4ddd	16g#	16d	4BB
.	16B	16B	.
.	16g#	16d	.
.	16B	16B	.
16ccc#	16g#	16d	4r
16bb	16B	16B	.
16aa	16g#	16d	.
16gg#	16B	16B	.
16aa	8a	8A	[2AA
16aa	.	.	.
16ccc#	8g	8e	.
16aa	.	.	.
16ddd	8f#	8d	.
16aa	.	.	.
16ff#	8f#	8d	.
16dd	.	.	.
=22	=22	=22	=22
16a	8e	8c#	8AA]
16aa	.	.	.
16ccc#	8g	8e	8AA
16aa	.	.	.
16ddd	8f#	8d	8AA
16aa	.	.	.
16ff#	8f#	8d	8AA
16dd	.	.	.
4a	4e	4c#	4AA
4r	4r	4r	4r
=23	=23	=23	=23
8r	8r	2f	2F
8aa	8a	.	.
8aa	8a	.	.
8aa	8a	.	.
8ccc	8cc	4d	4D
4bb-	4b-	.	.
.	.	4e	4E
[8gg#	[8g#	.	.
=24	=24	=24	=24
8gg#]	8g#]	4c#	4C#
4aa	4a	.	.
.	.	4d	4D
4ff	4f	.	.
.	.	4G	4GG
4ee	4e	.	.
.	.	4A	4AA
8cc#	8c#	.	.
=25	=25	=25	=25
8r	8r	2B-	2BB-
8dd	8d	.	.
8dd	8d	.	.
8dd	8d	.	.
8ff	8f	4G	4GG
4ee-	4e-	.	.
.	.	4A	4AA
[8cc#	[8c#	.	.
=26	=26	=26	=26
8cc#]	8c#]	4F#	4FF#
4dd	4d	.	.
.	.	4G	4GG
4b-	4B-	.	.
.	.	2r	4AA
4a	4A	.	.
.	.	.	4BB
8g#	8G#	.	.
=27	=27	=27	=27
16g	4A	4.E	4.C#
16A	.	.	.
16c#	.	.	.
16e	.	.	.
16g	8r	.	.
16A	.	.	.
16g	8B-	8F	8D
16B-	.	.	.
16g	4A	4.E	4.C#
16A	.	.	.
16c#	.	.	.
16e	.	.	.
16g	8r	.	.
16A	.	.	.
16g	8B-	8F	8D
16B-	.	.	.
=28	=28	=28	=28
16g	8A	8E	8C#
16A	.	.	.
16g	8B-	8F	8D
16B-	.	.	.
16g	8A	8E	8C#
16A	.	.	.
16g	8B-	8F	8D
16B-	.	.	.
16g	[2A	2E	2C#
16A	.	.	.
16c#	.	.	.
16e	.	.	.
16a	.	.	.
16cc#	.	.	.
16ee	.	.	.
16g	.	.	.
=29	=29	=29	=29
16f#	8A]	8F#	4D
16a	.	.	.
16dd	8r	8r	.
16ff#	.	.	.
16aa	8f#	8d	2.r
16gg#	.	.	.
16bb	8e#	8d	.
16gg#	.	.	.
16aa	8f#	8d	.
16a	.	.	.
16dd	8r	8r	.
16ff#	.	.	.
16aa	8f#	8d	.
16gg#	.	.	.
16bb	8e#	8d	.
16gg#	.	.	.
=30	=30	=30	=30
16aa	8f#	8d	2.r
16a	.	.	.
16dd	8r	8r	.
16ff#	.	.	.
16aa	8f#	8d	.
16gg#	.	.	.
16bb	8e#	8d	.
16gg#	.	.	.
16aa	8f#	8d	.
16ff#	.	.	.
16ddd	8r	8r	.
16ddd	.	.	.
8ddd	8a#	8d	8F#
8ddd	8a#	8d	8F#
=31	=31	=31	=31
8ddd	8a#	8d	8G
8bb	8b	8r	8r
8bb	8d#	8b	8G
8bb	8d#	8b	8G
8bb	8d#	8b	8G
8gg	8e	8r	8r
8gg	8ee	8B	8G
8gg	8ee	8B	8G
=32	=32	=32	=32
8ff#	8dd	8A	4A
8aa	8f#	8f#	.
8cc#	8g	8e	4AA
8ee	8e	8G	.
4dd	4d	[2F#	[2DD
8r	4r	.	.
8A	.	.	.
=33	=33	=33	=33
8f#	[1A	2F#]	1DD_
8f#	.	.	.
8d	.	.	.
8d	.	.	.
8.c#	.	2G	.
16e	.	.	.
8g	.	.	.
16e	.	.	.
16c#	.	.	.
=34	=34	=34	=34
8.d	2A]	2F#	4.DD]
16f#	.	.	.
8a	.	.	.
8a	.	.	8FF#
16a	[2B	[2D	[2GG
16g	.	.	.
16g	.	.	.
16f#	.	.	.
16f#	.	.	.
16e	.	.	.
16e	.	.	.
16a	.	.	.
=35	=35	=35	=35
16a	2B]	2D]	2GG]
16g	.	.	.
16g	.	.	.
16f#	.	.	.
16f#	.	.	.
16e	.	.	.
16e	.	.	.
16a	.	.	.
16a	2B	4.D#	2GG
16g	.	.	.
16g	.	.	.
16f#	.	.	.
16f#	.	.	.
16e	.	.	.
16e	.	8E	.
16b	.	.	.
=36	=36	=36	=36
2b	2.d	2F	2GG#
4d	.	4F#	2AA
8e	4c#	4G	.
16d	.	.	.
16e	.	.	.
=37	=37	=37	=37
8d	8d	8F#	8D
8r	8r	8r	8r
8e	8aa	8cc#	8g
16d	8aa	8cc#	8g
16e	.	.	.
8d	8aa	8dd	8f#
8d	8r	8dd	8f#
8e	8aa	8cc#	8g
16d	8aa	8cc#	8g
16e	.	.	.
=38	=38	=38	=38
8d	8aa	8dd	8f#
8r	8r	8r	8r
8e	8aa	8cc#	8g
16d	8aa	8cc#	8g
16e	.	.	.
8d	8aa	8dd	8f#
4.r	4.r	4.r	4r
.	.	.	8AA
=39	=39	=39	=39
1r	2..r	4.r	8F#
.	.	.	8F#
.	.	.	8D
.	.	8A	8D
.	.	8g	8.C#
.	.	8g	.
.	.	.	16E
.	.	8e	8G
.	8A	8c#	8E
=40	=40	=40	=40
2..r	8a	4f#	4.D
.	8a	.	.
.	8f#	8r	.
.	8e	8A	8C
.	8.d#	8a	2BB
.	.	16a	.
.	16f#	16f#	.
.	8b	8d#	.
8B	16a	8d#	.
.	16f#	.	.
=41	=41	=41	=41
8g	4g	4e	4E
8g	.	.	.
8e	8r	4r	4r
8e	8B	.	.
8.d#	8a	4f#	4BB
.	16a	.	.
16f#	16f#	.	.
8a	8d#	8r	4r
16f#	8f#	8A	.
16d#	.	.	.
=42	=42	=42	=42
16e	4g	4G	4E
16g	.	.	.
16b	.	.	.
16ee	.	.	.
16gg	4.r	4.r	4.r
16bb	.	.	.
16gg	.	.	.
16ee	.	.	.
16b	.	.	.
16g	.	.	.
16e	8g	8B	8E
16g	.	.	.
16f#	8a	8B	8D#
16b	.	.	.
16a	8f#	8B	8D#
16b	.	.	.
=43	=43	=43	=43
16e	4g	4B	4E
16g	.	.	.
16b	.	.	.
16ee	.	.	.
16gg	4.r	4.r	4.r
16bb	.	.	.
16gg	.	.	.
16ee	.	.	.
16b	.	.	.
16g	.	.	.
16e	8g	8B	8E
16g	.	.	.
16f#	8a	8B	8D#
16b	.	.	.
16a	8f#	8B	8D#
16b	.	.	.
=44	=44	=44	=44
16e	4g	4B	4E
16ee	.	.	.
16g	.	.	.
16ee	.	.	.
16e	4r	4r	4r
16ee	.	.	.
16g	.	.	.
16ee	.	.	.
16e	4b	4d	4GG#
16dd	.	.	.
16f	.	.	.
16dd	.	.	.
16e	4r	4r	4r
16dd	.	.	.
16g#	.	.	.
16dd	.	.	.
=45	=45	=45	=45
16A	4e	4c#	4AA
16c#	.	.	.
16e	.	.	.
16a	.	.	.
16cc#	4.r	4.r	4.r
16ee	.	.	.
16cc#	.	.	.
16a	.	.	.
16e	.	.	.
16c#	.	.	.
16A	8c#	8E	8AA
16c#	.	.	.
16B	8d	8E	8GG#
16e	.	.	.
16d	8B	8E	8GG#
16e	.	.	.
=46	=46	=46	=46
16A	4c#	4E	4AA
16c#	.	.	.
16e	.	.	.
16a	.	.	.
16cc#	4.r	4.r	4.r
16ee	.	.	.
16cc#	.	.	.
16a	.	.	.
16e	.	.	.
16c#	.	.	.
16A	8c#	8E	8AA
16c#	.	.	.
16B	8d	8E	8GG#
16e	.	.	.
16d	8B	8E	8GG#
16e	.	.	.
=47	=47	=47	=47
16A	4c#	4E	4AA
16a	.	.	.
16c#	.	.	.
16a	.	.	.
16A	4r	4r	4r
16a	.	.	.
16c#	.	.	.
16a	.	.	.
16A	4g	4e	4C#
16g	.	.	.
16B-	.	.	.
16g	.	.	.
16A	4r	4r	4r
16g	.	.	.
16c#	.	.	.
16g	.	.	.
=48	=48	=48	=48
16d	4f#	4A	4DD
16f#	.	.	.
16a	.	.	.
16dd	.	.	.
16ff#	4.r	4.r	4.r
16aa	.	.	.
16ff#	.	.	.
16dd	.	.	.
16a	.	.	.
16ddd	.	.	.
16aa	8a	8f#	8D
16ff#	.	.	.
16ee	8a	8g	8C#
16aa	.	.	.
16gg	8a	8e	8C#
16ee	.	.	.
=49	=49	=49	=49
16d	4a	4f#	4D
16f#	.	.	.
16a	.	.	.
16dd	.	.	.
16ff#	4.r	4.r	4.r
16aa	.	.	.
16ff#	.	.	.
16dd	.	.	.
16a	.	.	.
16ddd	.	.	.
16aa	8a	8f#	8D
16ff#	.	.	.
16ee	8a	8g	8C#
16aa	.	.	.
16gg	8a	8e	8C#
16ee	.	.	.
=50	=50	=50	=50
16dd	4a	4f#	4D
16ddd	.	.	.
16ff#	.	.	.
16ddd	.	.	.
16dd	4r	4r	4r
16ddd	.	.	.
16ff#	.	.	.
16ddd	.	.	.
16dd	4cc	4f#	4D
16ccc	.	.	.
16ff#	.	.	.
16ccc	.	.	.
16dd	4r	4r	4r
16ccc	.	.	.
16ff#	.	.	.
16ccc	.	.	.
=51	=51	=51	=51
16dd#	1b 1f#	1a	1D#
16bb	.	.	.
16ff#	.	.	.
16bb	.	.	.
16ddd#	.	.	.
16bb	.	.	.
16ff#	.	.	.
16dd#	.	.	.
16b	.	.	.
16dd#	.	.	.
16ff#	.	.	.
16dd#	.	.	.
16a	.	.	.
16dd#	.	.	.
16ff#	.	.	.
16a	.	.	.
=52	=52	=52	=52
16g	1b	1g	2E
16gg	.	.	.
16b	.	.	.
16gg	.	.	.
16g	.	.	.
16gg	.	.	.
16b	.	.	.
16gg	.	.	.
16e	.	.	2e
16ee	.	.	.
16g	.	.	.
16ee	.	.	.
16e	.	.	.
16ee	.	.	.
16g	.	.	.
16ee	.	.	.
=53	=53	=53	=53
16c	4c	4c	4C
16e	.	.	.
16c	.	.	.
16e	.	.	.
16B	4B	4B	4BB
16e	.	.	.
16B	.	.	.
16e	.	.	.
16A#	4A#	4A#	2AA#
16e	.	.	.
16g	.	.	.
16e	.	.	.
16g	4g	4e	.
16e	.	.	.
16g	.	.	.
16e	.	.	.
=54	=54	=54	=54
8B	4f#	4d#	[1BB
8bb	.	.	.
8bb	4a	4f#	.
8bb	.	.	.
8ddd	4g	4e	.
4ccc	.	.	.
.	4gg	4ee	.
[8aa#	.	.	.
=55	=55	=55	=55
8aa#]	4ff#	4dd#	1BB_
4bb	.	.	.
.	4ff	4dd	.
4gg#	.	.	.
.	4ee	4cc#	.
4aa	.	.	.
.	4dd#	4cc	.
[8ff#	.	.	.
=56	=56	=56	=56
8ff#]	4ee	4b	1BB_
4gg	.	.	.
.	4cc	4a	.
4dd#	.	.	.
.	4b	4g	.
4ee	.	.	.
.	4g	4e	.
[8a#	.	.	.
=57	=57	=57	=57
8a#]	4f#	4d#	1BB]
4b	.	.	.
.	4a	4D#	.
4a	.	.	.
.	4g	4E	.
4g	.	.	.
.	4A#	4G	.
8e	.	.	.
=58	=58	=58	=58
8d#	4B	4F#	4BB
8B	.	.	.
8B	4.r	4.r	4.r
8B	.	.	.
8B	.	.	.
8b	8d	8F#	8BB
8b	8d	8F#	8BB
8b	8d	8F#	8BB
=59	=59	=59	=59
8dd	2.d 2.c	2.F#	2.AA
8cc	.	.	.
8a	.	.	.
8f#	.	.	.
4c	.	.	.
4r	4r	4r	4r
=60	=60	=60	=60
16c	8A	8D	8FF#
16d	.	.	.
16c	8A	8D	8FF#
16d	.	.	.
16c	8A	8D	8FF#
16d	.	.	.
16c	8A	8D	8FF#
16d	.	.	.
8c	8A	8D	8FF#
4r	4.r	4.r	4.r
16B	.	.	.
16d	.	.	.
=61	=61	=61	=61
4.g	8r	8r	4GG
.	8d	8B	.
.	8d	8B	4r
8b	8d	8B	.
4.dd	8r	8r	4GG
.	8b	8G	.
.	8b	8g	4r
8gg	8dd	8b	.
=62	=62	=62	=62
4gg	[2cc	[2a	8r
.	.	.	8D
16ff#	.	.	8d
16gg	.	.	.
16ee	.	.	8e
16ff#	.	.	.
8dd	8cc]	8a]	8f#
4r	4r	4r	4r
8cc	8a	8d	8F#
=63	=63	=63	=63
4cc	4a	4.d	4.G
8b	8g	.	.
8a	8f#	8B	8D#
8g	8e	8B	8E
8g	8B	8B	8E
8a	8c#	8G	8AA
8a	8c#	8G	8AA
=64	=64	=64	=64
8d	8d	8F#	8D
8r	8r	8r	8r
8e	8c#	8G	8AA
16e	8c#	8G	8AA
16f#	.	.	.
8d	8d	8F#	8D
4r	4.r	4.r	4.r
16B-	.	.	.
16d	.	.	.
=65	=65	=65	=65
4.g	8r	8r	4GG
.	8d	8B-	.
.	8d	8B-	4r
8b-	8d	8B-	.
4.dd	8r	8r	4GG
.	8b-	8G	.
.	8b-	8g	4r
8gg	8dd	8b-	.
=66	=66	=66	=66
4gg	2cc	8r	8r
.	.	8e-	8A
8ff	.	8f	8A
8ee-	.	8g	8A
8dd	4b-	4f	4B-
8ff	.	.	.
8bb-	8r	4r	8r
8ddd	8ff	.	8B-
=67	=67	=67	=67
4ddd	2gg	8r	4e-
.	.	8b-	.
8ccc	.	8cc	4e
8bb-	.	8dd-	.
8aa	4ff	4cc	4f
8ccc	.	.	.
8ddd	4r	4r	4r
8eee-	.	.	.
=68	=68	=68	=68
4eee-	2.aa	8r	2f#
.	.	8cc	.
8ddd	.	8dd	.
8ccc	.	8ee-	.
4ccc	.	8dd	8g
.	.	8f#	4.r
8bb-	8gg	8g	.
16aa	16ff#	8c#	.
16bb-	16gg	.	.
=69	=69	=69	=69
4aa	4ff#	4d	8r
.	.	.	8DD
2.r	2r	2r	8DD
.	.	.	8DD
.	.	.	8FF
.	.	.	4EE-
.	4g	4B-	.
.	.	.	8CC#
=70	=70	=70	=70
2.r	4f#	8A	[1DD
.	.	8d	.
.	2r	8d	.
.	.	8d	.
.	.	8f	.
.	.	4e-	.
4gg	4b-	.	.
.	.	[8c#	.
=71	=71	=71	=71
4ff#	4a	8c#]	1DD_
.	.	4d	.
4ff	4g#	.	.
.	.	4B	.
4ee	4a	.	.
.	.	4c	.
4ee-	4f#	.	.
.	.	[8A	.
=72	=72	=72	=72
4dd	4g	8A]	2.DD]
.	.	4B-	.
4cc#	4e	.	.
.	.	8G	.
16cc	4d	4F#	.
16d	.	.	.
16cc	.	.	.
16e-	.	.	.
16cc	8r	8r	8r
16d	.	.	.
16cc	8e-	8B-	8GG
16e-	.	.	.
=73	=73	=73	=73
16cc	8d	8A	8FF#
16d	.	.	.
16f#	8r	8r	8r
16a	.	.	.
16cc	8d	8A	8FF#
16a	.	.	.
16cc	8r	8r	8r
16ff#	.	.	.
16aa	4d	4A	4FF#
16ff#	.	.	.
16dd	.	.	.
16cc	.	.	.
16a	8r	8r	8r
16f#	.	.	.
16d	8d	8A	8FF#
16c	.	.	.
=74	=74	=74	=74
16B	4d	4B	4GG
16G	.	.	.
16B	.	.	.
16d	.	.	.
16f	8r	8r	8r
16G	.	.	.
16f	8A-	8E-	8C
16A-	.	.	.
16f	8G	8D	8BB
16G	.	.	.
16f	8A-	8E-	8C
16A-	.	.	.
16f	8G	8D	8BB
16G	.	.	.
16f	8A-	8E-	8C
16A-	.	.	.
=75	=75	=75	=75
16f	8G	8D	8BB
16G	.	.	.
16B	8r	8r	8r
16d	.	.	.
16f	8G	8D	8BB
16d	.	.	.
16f	8r	8r	8r
16b	.	.	.
16dd	4G	4D	4BB
16b	.	.	.
16ff	.	.	.
16dd	.	.	.
16b	8r	8r	8r
16g	.	.	.
16f	8G	8D	8BB
16d	.	.	.
=76	=76	=76	=76
16e	4G	4C	4C
16c	.	.	.
16e	.	.	.
16g	.	.	.
16cc	8r	8r	8r
16ee	.	.	.
16gg	8e	8c	8C
16ee	.	.	.
16dd	4g	4B	4BB
16b	.	.	.
16bb	.	.	.
16aa	.	.	.
16gg	8r	8r	8r
16ff#	.	.	.
16ee	8d	8d	8BB
16dd	.	.	.
=77	=77	=77	=77
16cc	4f#	4d	4AA
16a	.	.	.
16ccc	.	.	.
16aa	.	.	.
16ff#	4r	4r	4r
16dd	.	.	.
16cc	.	.	.
16a	.	.	.
16f#	2f#	2A	2D
16d	.	.	.
16c	.	.	.
16d	.	.	.
16c	.	.	.
16d	.	.	.
16c	.	.	.
16d	.	.	.
=78	=78	=78	=78
8B	8g	16G	4G
.	.	16G	.
4ddd	8r	16B	.
.	.	16d	.
.	8bb	16g	2.r
.	.	16d	.
8ccc	8aa	16a	.
.	.	16d	.
8bb	8gg	16b	.
.	.	16G	.
4ddd	4bb	16B	.
.	.	16d	.
.	.	16g	.
.	.	16d	.
8ccc	16aa	16a	.
.	16ff#	16d	.
=79	=79	=79	=79
4bb	16dd	16b	1r
.	16cc	16a	.
.	16b	16g	.
.	16a	16f#	.
4ggg	16g	16e	.
.	16f#	16d	.
.	16e	16c	.
.	16d	16B	.
8r	4e	4c	.
16ddd#	.	.	.
16eee	.	.	.
16ddd#	4r	4r	.
16eee	.	.	.
16ccc	.	.	.
16aa	.	.	.
=80	=80	=80	=80
4gg	8b	8d	2r
.	4gg	8d	.
4aa	.	8d	.
.	8ff#	8d	.
8gg	8gg	4g	16r
.	.	.	16GG
4dd	4b	.	16BB
.	.	.	16D
.	.	4r	16G
.	.	.	16D
8cc	8a	.	16A
.	.	.	16D
=81	=81	=81	=81
8b	8g	4.r	16B
.	.	.	16GG
4dd	4b	.	16BB
.	.	.	16D
.	.	.	16G
.	.	.	16D
8cc	8a	8f#	16A
.	.	.	16D
4b	4g	16dd	16B
.	.	16cc	16A
.	.	16b	16G
.	.	16a	16F#
4gg	4r	16g	16E
.	.	16f#	16D
.	.	16e	16C
.	.	16d	16BB
=82	=82	=82	=82
16r	2r	4e	4C
16e	.	.	.
16a	.	.	.
16cc	.	.	.
16ee	.	4r	4r
16cc	.	.	.
16b	.	.	.
16a	.	.	.
16b	4b 4g	4d	4D
16dd	.	.	.
16gg	.	.	.
16bb	.	.	.
8ddd	8r	8r	8r
8ff#	8dd	8a	8D
=83	=83	=83	=83
2.gg	2.cc#	2.a	2.E
8r	4r	4r	4r
16cc	.	.	.
16ff#	.	.	.
=84	=84	=84	=84
8aa	8r	8r	8r
4r	8cc 8d	8a	8F#
.	8cc 8d	8a	8F#
16ff#	4r	4r	4r
16aa	.	.	.
8ccc	.	.	.
4r	8cc 8d	8a	8F#
.	8cc 8d	8a	8F#
16B	8r	8r	8r
16d	.	.	.
=85	=85	=85	=85
4.g	8r	8r	4GG
.	8d	8B	.
.	8d	8B	4r
8b	8d	8B	.
4.dd	8r	8r	4GG
.	8b	8G	.
.	8b	8g	4r
8gg	8dd	8b	.
=86	=86	=86	=86
4gg	[1cc	[1a	8r
.	.	.	8D
16ff#	.	.	8d
16gg	.	.	.
16ee	.	.	8e
16ff#	.	.	.
4dd	.	.	[2f#
4dd#	.	.	.
=87	=87	=87	=87
2ee	2cc]	2a]	2f#]
8r	8r	4F#	2r
4eee	4ccc	.	.
.	.	4f#	.
16ddd	16bb	.	.
16ccc	16aa	.	.
=88	=88	=88	=88
8bb	8gg	4g	1r
4ddd	4bb	.	.
.	.	4b	.
16ccc	16aa	.	.
16bb	16gg	.	.
8aa	4.gg	4cc	.
4aa	.	.	.
.	.	4cc#	.
16bb	8ee	.	.
16gg	.	.	.
=89	=89	=89	=89
8ff#	8dd	4dd	[1DD
4r	4dd	.	.
.	.	4.B	.
4ff	16b	.	.
.	16a	.	.
.	8g#	.	.
16ee	4b	8G#	.
16dd	.	.	.
8cc	.	8A	.
[8ee	16a	[8c	.
.	16g	.	.
=90	=90	=90	=90
8ee]	8f#	8c]	1DD_
16dd	4a	8F#	.
16cc	.	.	.
8b	.	8G	.
4dd	16g	4B	.
.	16f#	.	.
.	8e	.	.
16cc	4g	8E	.
16b	.	.	.
8a	.	8F#	.
[8cc	16f#	[8A	.
.	16e	.	.
=91	=91	=91	=91
8cc]	8d	8A]	1DD]
16b	4f#	8D	.
16a	.	.	.
8g	.	8E	.
4b	16e	4G	.
.	16d	.	.
.	2c#	.	.
16a	.	16F#	.
16b	.	16G	.
8a	.	8F#	.
8g	.	8E	.
=92	=92	=92	=92
16f#	8d	8D	8DD
16d	.	.	.
16f#	8r	8r	8r
16a	.	.	.
16cc	8f#	8A	8DD
16a	.	.	.
16cc	8a	8r	8r
16ff#	.	.	.
16aa	2cc	2f#	2DD
16ff#	.	.	.
16ccc	.	.	.
16aa	.	.	.
16ff#	.	.	.
16dd	.	.	.
16cc	.	.	.
16a	.	.	.
=93	=93	=93	=93
16b	8b	8g	8GG
16bb	.	.	.
16ff#	2..r	8r	8r
16gg	.	.	.
16dd#	.	8g	8C
16ee	.	.	.
16cc	.	8r	8r
16a	.	.	.
8g	.	8b	8D
4r	.	4r	4r
8d	.	8f#	8D
=94	=94	=94	=94
8b	[1d	4g	[1GG
8b	.	.	.
8g	.	4B	.
8g	.	.	.
8.f#	.	2c	.
16a	.	.	.
8cc	.	.	.
16a	.	.	.
16f#	.	.	.
=95	=95	=95	=95
8.g	2d]	2B	4.GG]
16b	.	.	.
8dd	.	.	.
8dd	.	.	8BB
16dd	[2e	[2G	[2C
16cc	.	.	.
16cc	.	.	.
16b	.	.	.
16b	.	.	.
16a	.	.	.
16a	.	.	.
16dd	.	.	.
=96	=96	=96	=96
16dd	1e]	2G]	2C]
16cc	.	.	.
16cc	.	.	.
16b	.	.	.
16b	.	.	.
16a	.	.	.
16a	.	.	.
16dd	.	.	.
16dd	.	4.G#	2C
16cc	.	.	.
16cc	.	.	.
16b	.	.	.
16b	.	.	.
16a	.	.	.
16a	.	8A	.
16ee	.	.	.
=97	=97	=97	=97
2ee	2.g	2B-	2C#
4g	.	4B	2D
8a	4f#	4c	.
16g	.	.	.
16a	.	.	.
=98	=98	=98	=98
8g	8g	8B	8GG
8r	8r	8r	8r
8A	8ccc	8dd	8f#
16G	8ccc	8dd	8f#
16A	.	.	.
8G	8bb	8dd	8g
8G	8r	8r	8r
8A	8ccc	8dd	8f#
16G	8ccc	8dd	8f#
16A	.	.	.
=99	=99	=99	=99
8G	8bb	8dd	8g
8r	8r	8r	8r
8A	8ccc	8dd	8f#
16G	8r	8r	8r
16A	.	.	.
8G	8bb	8dd	8g
4.r	4.r	4.r	4.r
==	==	==	==
*-	*-	*-	*-
!!!RWG1: This file contains only pitch and duration data.
!!!RWG2: Transposing instruments are not transposed.
!!!RWG3: Spines may have incompatible meters.
!!!RWG4: Durations of rests and tied notes may be interpreted.
!!!RWG: Key is interpreted using the Humdrum key tool.
!!!GTL: 6 Quartetti ("Tost III") 
!!!AFT: stage1 
!!!END: 2000/12/07
!!format changes:
!!content changes:
!!public access: complete
!!!KEY: 4123330884
!!!EMD: Converted from MuseData to Humdrum Dec 16, 2000, by Andreas Kornstaedt using muse2kern.
